symbols/web/integration_instructions/materialsymbolsrounded/integration_instructions_wght500grad200_24px.svg

<svg xmlns="http://www.w3.org/2000/svg" height="24" width="24"><path d="M10.475 14.95q.375-.375.375-.9t-.375-.9l-1.1-1.075 1.15-1.125q.375-.375.375-.9t-.375-.925q-.375-.375-.9-.375t-.9.375L6.75 11.1q-.4.4-.4.987 0 .588.4.988l1.9 1.9q.4.375.912.362.513-.012.913-.387Zm3.075.05q.375.375.9.375t.9-.35l1.925-1.9q.375-.425.375-.988 0-.562-.375-.987L15.3 9.175q-.375-.35-.9-.35t-.9.35q-.375.375-.375.912 0 .538.375.913l1.15 1.125-1.1 1.075q-.375.375-.375.9t.375.9Zm-8.6 4.1h14.1V5.025H4.95V19.1Zm0-14.075V19.1 5.025Zm0 16.9q-1.2 0-2.012-.812-.813-.813-.813-2.013V5.025q0-1.2.813-2.013Q3.75 2.2 4.95 2.2h3.475q.6-.925 1.538-1.488Q10.9.15 12 .15q1.1 0 2.038.562.937.563 1.537 1.488h3.475q1.2 0 2.012.812.813.813.813 2.013V19.1q0 1.2-.813 2.013-.812.812-2.012.812ZM12 4.125q.35 0 .575-.225.225-.225.225-.575t-.225-.575q-.225-.225-.575-.225t-.575.225q-.225.225-.225.575t.225.575q.225.225.575.225Z"/></svg>

<svg xmlns="http://www.w3.org/2000/svg" height="24" width="24"><path d="M10.475 14.95Q10.85 14.575 10.85 14.05Q10.85 13.525 10.475 13.15L9.375 12.075L10.525 10.95Q10.9 10.575 10.9 10.05Q10.9 9.525 10.525 9.125Q10.15 8.75 9.625 8.75Q9.1 8.75 8.725 9.125L6.75 11.1Q6.35 11.5 6.35 12.087Q6.35 12.675 6.75 13.075L8.65 14.975Q9.05 15.35 9.562 15.337Q10.075 15.325 10.475 14.95ZM13.55 15Q13.925 15.375 14.45 15.375Q14.975 15.375 15.35 15.025L17.275 13.125Q17.65 12.7 17.65 12.137Q17.65 11.575 17.275 11.15L15.3 9.175Q14.925 8.825 14.4 8.825Q13.875 8.825 13.5 9.175Q13.125 9.55 13.125 10.087Q13.125 10.625 13.5 11L14.65 12.125L13.55 13.2Q13.175 13.575 13.175 14.1Q13.175 14.625 13.55 15ZM4.95 21.925Q3.75 21.925 2.938 21.113Q2.125 20.3 2.125 19.1V5.025Q2.125 3.825 2.938 3.012Q3.75 2.2 4.95 2.2H8.425Q9.025 1.275 9.963 0.712Q10.9 0.15 12 0.15Q13.1 0.15 14.038 0.712Q14.975 1.275 15.575 2.2H19.05Q20.25 2.2 21.062 3.012Q21.875 3.825 21.875 5.025V19.1Q21.875 20.3 21.062 21.113Q20.25 21.925 19.05 21.925ZM12 4.125Q12.35 4.125 12.575 3.9Q12.8 3.675 12.8 3.325Q12.8 2.975 12.575 2.75Q12.35 2.525 12 2.525Q11.65 2.525 11.425 2.75Q11.2 2.975 11.2 3.325Q11.2 3.675 11.425 3.9Q11.65 4.125 12 4.125ZM4.95 19.1H19.05Q19.05 19.1 19.05 19.1Q19.05 19.1 19.05 19.1V5.025Q19.05 5.025 19.05 5.025Q19.05 5.025 19.05 5.025H4.95Q4.95 5.025 4.95 5.025Q4.95 5.025 4.95 5.025V19.1Q4.95 19.1 4.95 19.1Q4.95 19.1 4.95 19.1ZM4.95 5.025Q4.95 5.025 4.95 5.025Q4.95 5.025 4.95 5.025V19.1Q4.95 19.1 4.95 19.1Q4.95 19.1 4.95 19.1Q4.95 19.1 4.95 19.1Q4.95 19.1 4.95 19.1V5.025Q4.95 5.025 4.95 5.025Q4.95 5.025 4.95 5.025Z"/></svg>
